assets/dude/We–Tammy.svg

<svg width="241" height="105" viewBox="0 0 241 105" fill="none" xmlns="http://www.w3.org/2000/svg">
<path d="M145.733 10.02C139.573 10.02 132.993 2.74003 124.453 2.74003C115.913 2.74003 109.333 10.02 103.173 10.02C101.913 10.02 101.213 10.72 101.213 11.98C101.213 13.24 103.733 25.28 103.733 37.74C103.733 38.44 104.293 39 104.993 39H120.393C120.953 39 121.233 39.28 121.233 39.56C121.233 39.98 120.813 40.82 120.813 40.82L110.033 64.9C109.333 66.3 108.773 66.72 108.073 66.72H95.6127C94.9127 66.72 94.3527 66.3 93.5127 64.76L82.8727 40.82C82.8727 40.82 82.4527 39.98 82.4527 39.56C82.4527 39.28 82.7327 39 83.2927 39H93.0927C93.7927 39 94.3527 38.44 94.3527 37.74C94.3527 25.28 96.8727 13.24 96.8727 11.98C96.8727 10.72 96.1727 10.02 94.9127 10.02C88.7527 10.02 82.8727 2.74003 74.3327 2.74003C65.7927 2.74003 59.9127 10.02 53.7527 10.02C52.4927 10.02 51.7927 10.72 51.7927 11.98C51.7927 13.24 54.3127 25.28 54.3127 37.74C54.3127 38.44 54.8727 39 55.5727 39H67.4727C68.0327 39 68.3127 39.28 68.3127 39.56C68.3127 39.98 67.8927 40.82 67.8927 40.82L57.1127 64.9C56.4127 66.3 55.8527 66.72 55.1527 66.72H42.6927C41.9927 66.72 41.4327 66.3 40.5927 64.76L29.9527 40.82C29.9527 40.82 29.5327 39.98 29.5327 39.56C29.5327 39.28 29.8127 39 30.3727 39H43.6727C44.3727 39 44.9327 38.44 44.9327 37.74C44.9327 25.28 47.4527 13.24 47.4527 11.98C47.4527 10.72 46.7527 10.02 45.4927 10.02C39.3327 10.02 32.7527 2.74003 24.2127 2.74003C15.6727 2.74003 9.09266 10.02 2.93266 10.02C1.67266 10.02 0.972656 10.72 0.972656 11.98C0.972656 13.24 3.49266 25.28 3.49266 37.74C3.49266 38.44 4.05266 39 4.75266 39H13.0127C13.7127 39 14.4127 39.56 14.9727 40.82L41.9927 101.86C42.2727 102.42 43.5327 104.52 46.4727 104.52C49.1327 104.52 50.5327 102.42 50.8127 101.86L71.3927 55.8C71.3927 55.8 72.0927 53.98 72.9327 53.98C73.7727 53.98 74.4727 55.8 74.4727 55.8L94.9127 101.86C95.1927 102.42 96.4527 104.52 99.3927 104.52C102.053 104.52 103.453 102.42 103.733 101.86L130.893 40.82C131.453 39.56 132.153 39 132.853 39H143.913C144.613 39 145.173 38.44 145.173 37.74C145.173 25.28 147.693 13.24 147.693 11.98C147.693 10.72 146.993 10.02 145.733 10.02Z" fill="#FF1C31"/>
<path d="M238.43 60.84C238.43 60.14 237.87 59.58 237.17 59.58H229.89C229.19 59.58 228.63 60.14 228.63 60.84C228.63 64.34 225.83 66.72 222.33 66.72H182.99C182.29 66.72 181.73 66.16 181.73 65.46V57.9C181.73 57.2 182.29 56.64 182.99 56.64H194.75C195.45 56.64 196.01 57.2 196.01 57.9V59.16C196.01 59.86 196.57 60.42 197.27 60.42H216.17C216.87 60.42 217.43 59.86 217.43 59.16V46.56C217.43 45.86 216.87 45.3 216.17 45.3H197.27C196.57 45.3 196.01 45.86 196.01 46.56V47.82C196.01 48.52 195.45 49.08 194.75 49.08H182.99C182.29 49.08 181.73 48.52 181.73 47.82V40.26C181.73 39.56 182.29 39 182.99 39H222.33C225.83 39 228.63 41.38 228.63 44.88C228.63 45.58 229.19 46.14 229.89 46.14H237.17C237.87 46.14 238.43 45.58 238.43 44.88V37.74C238.43 25.28 240.95 13.24 240.95 11.98C240.95 10.72 240.25 10.02 238.99 10.02C210.85 10.02 215.47 0.780029 196.85 0.780029C178.23 0.780029 182.85 10.02 154.71 10.02C153.45 10.02 152.75 10.72 152.75 11.98C152.75 13.24 155.27 25.28 155.27 37.74C155.27 38.44 155.83 39 156.53 39H170.39C171.09 39 171.65 39.56 171.65 40.26V65.46C171.65 66.16 171.09 66.72 170.39 66.72H156.53C155.83 66.72 155.27 67.28 155.27 67.98C155.27 80.44 152.75 92.48 152.75 93.74C152.75 95 153.45 95.7 154.71 95.7C182.85 95.7 178.23 104.94 196.85 104.94C215.47 104.94 210.85 95.7 238.99 95.7C240.25 95.7 240.95 95 240.95 93.74C240.95 92.48 238.43 80.44 238.43 67.98V60.84Z" fill="#FF1C31"/>
</svg>

<svg xmlns="http://www.w3.org/2000/svg" fill="none" viewBox="0 0 241 105"><path fill="#FF1C31" d="M145.733 10.02c-6.16 0-12.74-7.28-21.28-7.28-8.54 0-15.12 7.28-21.28 7.28-1.26 0-1.96.7-1.96 1.96s2.52 13.3 2.52 25.76c0 .7.56 1.26 1.26 1.26h15.4c.56 0 .84.28.84.56 0 .42-.42 1.26-.42 1.26l-10.78 24.08c-.7 1.4-1.26 1.82-1.96 1.82h-12.46c-.7 0-1.26-.42-2.1-1.96l-10.64-23.94s-.42-.84-.42-1.26c0-.28.28-.56.84-.56h9.8c.7 0 1.26-.56 1.26-1.26 0-12.46 2.52-24.5 2.52-25.76 0-1.26-.7-1.96-1.96-1.96-6.16 0-12.04-7.28-20.58-7.28s-14.42 7.28-20.58 7.28c-1.26 0-1.96.7-1.96 1.96s2.52 13.3 2.52 25.76c0 .7.56 1.26 1.26 1.26h11.9c.56 0 .84.28.84.56 0 .42-.42 1.26-.42 1.26L57.113 64.9c-.7 1.4-1.26 1.82-1.96 1.82h-12.46c-.7 0-1.26-.42-2.1-1.96l-10.64-23.94s-.42-.84-.42-1.26c0-.28.28-.56.84-.56h13.3c.7 0 1.26-.56 1.26-1.26 0-12.46 2.52-24.5 2.52-25.76 0-1.26-.7-1.96-1.96-1.96-6.16 0-12.74-7.28-21.28-7.28-8.54 0-15.12 7.28-21.28 7.28-1.26 0-1.96.7-1.96 1.96s2.52 13.3 2.52 25.76c0 .7.56 1.26 1.26 1.26h8.26c.7 0 1.4.56 1.96 1.82l27.02 61.04c.28.56 1.54 2.66 4.48 2.66 2.66 0 4.06-2.1 4.34-2.66l20.58-46.06s.7-1.82 1.54-1.82c.84 0 1.54 1.82 1.54 1.82l20.44 46.06c.28.56 1.54 2.66 4.48 2.66 2.66 0 4.06-2.1 4.34-2.66l27.16-61.04c.56-1.26 1.26-1.82 1.96-1.82h11.06c.7 0 1.26-.56 1.26-1.26 0-12.46 2.52-24.5 2.52-25.76 0-1.26-.7-1.96-1.96-1.96zM238.43 60.84c0-.7-.56-1.26-1.26-1.26h-7.28c-.7 0-1.26.56-1.26 1.26 0 3.5-2.8 5.88-6.3 5.88h-39.34c-.7 0-1.26-.56-1.26-1.26V57.9c0-.7.56-1.26 1.26-1.26h11.76c.7 0 1.26.56 1.26 1.26v1.26c0 .7.56 1.26 1.26 1.26h18.9c.7 0 1.26-.56 1.26-1.26v-12.6c0-.7-.56-1.26-1.26-1.26h-18.9c-.7 0-1.26.56-1.26 1.26v1.26c0 .7-.56 1.26-1.26 1.26h-11.76c-.7 0-1.26-.56-1.26-1.26v-7.56c0-.7.56-1.26 1.26-1.26h39.34c3.5 0 6.3 2.38 6.3 5.88 0 .7.56 1.26 1.26 1.26h7.28c.7 0 1.26-.56 1.26-1.26v-7.14c0-12.46 2.52-24.5 2.52-25.76 0-1.26-.7-1.96-1.96-1.96-28.14 0-23.52-9.24-42.14-9.24s-14 9.24-42.14 9.24c-1.26 0-1.96.7-1.96 1.96s2.52 13.3 2.52 25.76c0 .7.56 1.26 1.26 1.26h13.86c.7 0 1.26.56 1.26 1.26v25.2c0 .7-.56 1.26-1.26 1.26h-13.86c-.7 0-1.26.56-1.26 1.26 0 12.46-2.52 24.5-2.52 25.76 0 1.26.7 1.96 1.96 1.96 28.14 0 23.52 9.24 42.14 9.24s14-9.24 42.14-9.24c1.26 0 1.96-.7 1.96-1.96s-2.52-13.3-2.52-25.76v-7.14z"/></svg>
